X:13
%%etbk:tnset id:5,pos:2,rep:3x,ant:
%%etbk:wsite http://www.thesession.org/tunes/display/3065
%%etbk:pldat 2016-04-12T16:23,2016-01-27T17:49,2016-01-27T17:42,2015-11-25T16:11,2015-03-26T19:16,2015-03-05T18:58,2015-01-19T19:30,2014-12-29T17:25,2014-11-22T16:19,2014-11-19T17:06,2014-11-10T18:38,2014-09-15T18:51,2014-09-11T19:21,2014-09-08T18:04,2014-05-20T16:15,2014-05-09T18:14,2014-04-26T17:32,2014-04-07T19:01,2014-04-01T17:52,2014-03-21T17:01,2014-03-19T19:39,2014-02-05T15:39,2013-12-10T18:58,2013-11-19T16:09,2013-11-17T15:56,2013-11-16T14:24,2013-11-07T15:38,2013-10-04T17:35,2013-10-02T16:23,2013-05-15T16:31,2013-05-01T17:28
T: East Clare
Z: Piano Box Version by Martin Fleischmann
H: Created 2013-02-19 /  Last Modified 2013-10-02
M: 4/4
L: 1/8
R: Reel
K: Ddor
|: "dm"!1!D!2!E!1!F!3!A !5!d2 !4!c!3!A | "am"!2!G!1!EEE E3!2!G | !3!A2 !5!d!4!c !5!d!4!c!3!A!4!B | !5!c!3!A!2!G!1!E !3!E!2!D!1!C!3!E |
"dm"!1!D2!2!F!3!A !5!d2  !4!c !3!A | "am" !2!G !1!EEE E3G | A2 dc dcAB |1 cAGE EDCE :|2 !5!cAG!1!E "dm"!2!E!1!DD2 :|
|: "dm"!5!a!4!g!3!e!2!d !1!c!2!d!3!e!2!d | !1!cc cd !3!e!4!gg2 | aged cded | "am"!1!c!2!A!1!G!2!E "dm"!2!E!1!DD2 |
"dm"!3!edeg aged |  "am"!2!d!1!c!2!AB !4!cAGc | "dm"!2!A!1!FFF !1!F!2!G!3!A!4!B | "am"!5!cAG!1!E "dm"!2!E!1!DD2 :|


